X:2940
T:Jacky Robinson's
O:england
M:4/4
L:1/4
R:Reel
K:G
F/E/|DGDG/B/|cAA2|F/G/A F/G/A|G/A/B/e/d2|eedd|c/B/A/B/ AG|DGF/G/A/c/|BGG
::
B|d>dee|e/d/c/B/ AA|d>dee|e/d/c/B/ AB/A/|G/A/B/c/ dB|cA/c/BG|DGF/G/A/c/|
BGG:|


